other/unitconverterultimate.svg

<?xml version="1.0" encoding="UTF-8" standalone="no"?>
<svg
   xmlns:dc="http://purl.org/dc/elements/1.1/"
   xmlns:cc="http://creativecommons.org/ns#"
   xmlns:rdf="http://www.w3.org/1999/02/22-rdf-syntax-ns#"
   xmlns:svg="http://www.w3.org/2000/svg"
   xmlns="http://www.w3.org/2000/svg"
   xmlns:sodipodi="http://sodipodi.sourceforge.net/DTD/sodipodi-0.dtd"
   xmlns:inkscape="http://www.inkscape.org/namespaces/inkscape"
   width="48"
   height="48"
   viewBox="0 0 48 48"
   version="1.1"
   id="svg936"
   sodipodi:docname="unitconverterultimate.svg"
   inkscape:version="0.92.3 (2405546, 2018-03-11)">
  <metadata
     id="metadata942">
    <rdf:RDF>
      <cc:Work
         rdf:about="">
        <dc:format>image/svg+xml</dc:format>
        <dc:type
           rdf:resource="http://purl.org/dc/dcmitype/StillImage" />
        <dc:title />
      </cc:Work>
    </rdf:RDF>
  </metadata>
  <defs
     id="defs940" />
  <sodipodi:namedview
     pagecolor="#ffffff"
     bordercolor="#666666"
     borderopacity="1"
     objecttolerance="10"
     gridtolerance="10"
     guidetolerance="10"
     inkscape:pageopacity="0"
     inkscape:pageshadow="2"
     inkscape:window-width="2560"
     inkscape:window-height="1385"
     id="namedview938"
     showgrid="false"
     inkscape:pagecheckerboard="true"
     inkscape:zoom="39.333333"
     inkscape:cx="17.617919"
     inkscape:cy="17.092041"
     inkscape:window-x="1920"
     inkscape:window-y="27"
     inkscape:window-maximized="1"
     inkscape:current-layer="svg936" />
  <path
     d="M 24,2 C 11.849736,2 2,11.849736 2,24 2,36.150264 11.849736,46 24,46 36.150264,46 46,36.150264 46,24 46,11.849736 36.150264,2 24,2 Z M 14.269531,6.6230469 V 11.617188 H 30.78125 c 0,2.751953 0,5.503906 0,8.255859 H 14.294922 l -0.171875,4.726562 -8.5859376,-9.066406 z m 19.460938,16.9375001 8.990234,8.990234 -8.990234,8.990235 V 36.677734 H 17.21875 v -8.255859 h 16.511719 z"
     id="circle934"
     style="fill:#ffffff;fill-opacity:1"
     inkscape:connector-curvature="0"
     sodipodi:nodetypes="ssssscccccccccccccccc" />
</svg>

<?xml version="1.0" encoding="UTF-8"?>
<svg version="1.1" viewBox="0 0 48 48" xmlns="http://www.w3.org/2000/svg">
    <path d="m24 2c-12.15 0-22 9.8497-22 22s9.8497 22 22 22 22-9.8497 22-22-9.8497-22-22-22zm-9.7305 4.623v4.9941h16.512v8.2559h-16.486l-0.17188 4.7266-8.5859-9.0664zm19.461 16.938 8.9902 8.9902-8.9902 8.9902v-4.8633h-16.512v-8.2559h16.512z" fill="#fff"/>
</svg>
